papirus-arc-dark/48x48/places/start-here-kde.svg

<?xml version="1.0" encoding="UTF-8" standalone="no"?>
<!-- Created with Inkscape (http://www.inkscape.org/) -->

<svg
   xmlns:dc="http://purl.org/dc/elements/1.1/"
   xmlns:cc="http://creativecommons.org/ns#"
   xmlns:rdf="http://www.w3.org/1999/02/22-rdf-syntax-ns#"
   xmlns:svg="http://www.w3.org/2000/svg"
   xmlns="http://www.w3.org/2000/svg"
   xmlns:sodipodi="http://sodipodi.sourceforge.net/DTD/sodipodi-0.dtd"
   xmlns:inkscape="http://www.inkscape.org/namespaces/inkscape"
   id="svg5048"
   height="48"
   width="48"
   version="1.1"
   inkscape:version="0.91 r13725"
   sodipodi:docname="start-here-kde.svg">
  <sodipodi:namedview
     pagecolor="#ffffff"
     bordercolor="#666666"
     borderopacity="1"
     objecttolerance="10"
     gridtolerance="10"
     guidetolerance="10"
     inkscape:pageopacity="0"
     inkscape:pageshadow="2"
     inkscape:window-width="1600"
     inkscape:window-height="849"
     id="namedview13"
     showgrid="false"
     inkscape:zoom="1"
     inkscape:cx="20.166133"
     inkscape:cy="26.539667"
     inkscape:window-x="0"
     inkscape:window-y="0"
     inkscape:window-maximized="1"
     inkscape:current-layer="svg5048" />
  <defs
     id="defs5050">
    <style
       id="current-color-scheme"
       type="text/css">.ColorScheme-Text {
        color:#31363b;
      }
      .ColorScheme-Background{
        color:#eff0f1;
      }
      .ColorScheme-ViewText {
        color:#31363b;
      }
      .ColorScheme-ViewBackground{
        color:#fcfcfc;
      }
      .ColorScheme-ViewHover {
        color:#3daee9;
      }
      .ColorScheme-ViewFocus{
        color:#3daee9;
      }
      .ColorScheme-ButtonText {
        color:#31363b;
      }
      .ColorScheme-ButtonBackground{
        color:#eff0f1;
      }
      .ColorScheme-ButtonHover {
        color:#3daee9;
      }
      .ColorScheme-ButtonFocus{
        color:#3daee9;
      }</style>
    <style
       type="text/css"
       id="current-color-scheme-7">      .ColorScheme-Text {
        color:#31363b;
      }
      .ColorScheme-Background{
        color:#eff0f1;
      }
      .ColorScheme-ViewText {
        color:#31363b;
      }
      .ColorScheme-ViewBackground{
        color:#fcfcfc;
      }
      .ColorScheme-ViewHover {
        color:#3daee9;
      }
      .ColorScheme-ViewFocus{
        color:#3daee9;
      }
      .ColorScheme-ButtonText {
        color:#31363b;
      }
      .ColorScheme-ButtonBackground{
        color:#eff0f1;
      }
      .ColorScheme-ButtonHover {
        color:#3daee9;
      }
      .ColorScheme-ButtonFocus{
        color:#3daee9;
      }</style>
  </defs>
  <metadata
     id="metadata5053">
    <rdf:RDF>
      <cc:Work
         rdf:about="">
        <dc:format>image/svg+xml</dc:format>
        <dc:type
           rdf:resource="http://purl.org/dc/dcmitype/StillImage" />
        <dc:title />
      </cc:Work>
    </rdf:RDF>
  </metadata>
  <rect
     x="-44"
     y="-44"
     width="40"
     height="40"
     transform="matrix(0,-1,-1,0,0,0)"
     rx="2"
     ry="2"
     id="rect4203"
     style="fill:#2c9bff;fill-opacity:1" />
  <path
     d="M 6,4 C 4.892,4 4,4.892 4,6 L 4,7 C 4,5.892 4.892,5 6,5 l 36,0 c 1.108,0 2,0.892 2,2 L 44,6 C 44,4.892 43.108,4 42,4 L 6,4 Z"
     id="rect4592"
     inkscape:connector-curvature="0"
     style="opacity:0.2;fill:#ffffff" />
  <path
     d="M 6,44 C 4.892,44 4,43.108 4,42 l 0,-1 c 0,1.108 0.892,2 2,2 l 36,0 c 1.108,0 2,-0.892 2,-2 l 0,1 c 0,1.108 -0.892,2 -2,2 L 6,44 Z"
     id="path4597"
     inkscape:connector-curvature="0"
     style="opacity:0.3" />
  <rect
     style="opacity:0"
     x="0"
     y="2.4414063e-05"
     width="48"
     height="48"
     id="rect3861" />
  <path
     sodipodi:nodetypes="ccccccccccccc"
     inkscape:connector-curvature="0"
     id="path4219"
     d="M 26.0285,8.0003667 21,8.4973433 21,29.779268 26,29 26,20 33,30 38.943,28 31,19 39,10 33,8 26,18 26,8 Z"
     style="color:#31363b;fill:#000000;fill-opacity:1;opacity:0.2" />
  <path
     sodipodi:nodetypes="cccccccssccccccccccssccccccccccccccccccc"
     inkscape:connector-curvature="0"
     id="path4221"
     d="m 14.701172,14.001953 c -0.0615,0.0075 -0.127328,0.02186 -0.173828,0.06836 l -2.132813,2.119141 c -0.08948,0.08925 -0.09898,0.224031 -0.0332,0.332031 l 2.267578,3.720704 c -0.533337,0.866118 -0.944597,1.813143 -1.222656,2.816406 l -4.1855499,0.86328 C 9.0933531,23.947375 9,24.069469 9,24.199219 l 0,2.992187 c 0,0.12675 0.097403,0.234422 0.2207031,0.263672 l 4.0585939,0.978516 c 0.255309,1.128765 0.686861,2.188674 1.259765,3.15625 l -2.365234,3.576172 c -0.0717,0.10875 -0.05731,0.253452 0.03516,0.345703 l 2.13086,2.117187 c 0.09,0.08925 0.22989,0.100406 0.33789,0.03516 l 3.69336,-2.226562 c 0.9117,0.544943 1.907095,0.960985 2.964844,1.224609 l 0.861328,4.119141 C 22.223516,40.908 22.332391,41 22.462891,41 l 3.013671,0 c 0.126001,0 0.235626,-0.08478 0.265626,-0.207031 l 1.023437,-4.144531 c 1.066083,-0.276179 2.059808,-0.723029 2.974609,-1.285157 l 3.708985,2.414063 c 0.1095,0.0705 0.252703,0.05755 0.345703,-0.0332 l 2.121094,-2.117188 c 0.09,-0.08925 0.11092,-0.226734 0.04492,-0.333984 l -1.447266,-2.371094 -0.47461,0.150391 c -0.069,0.021 -0.145046,-0.01106 -0.185546,-0.07031 0,0 -0.449601,-0.608265 -0.806641,-1.091797 -0.166547,-0.253443 -0.973684,-1.438758 -1.806641,-2.52539 C 29.926747,32.197683 27.104471,33.996722 24,34 c -4.418278,0 -8,-3.581722 -8,-8 0.0029,-3.033662 1.420522,-5.729598 4,-7.080294 l 0,-3.234159 c -0.557871,0.207373 -0.924649,0.462811 -1.435547,0.753906 l -3.691406,-2.400391 c -0.05475,-0.036 -0.11113,-0.04311 -0.171875,-0.03711 z"
     style="color:#31363b;fill:#000000;fill-opacity:1;opacity:0.2" />
  <path
     style="color:#31363b;fill:#ffffff;fill-opacity:1"
     d="M 26.0285,7.0003667 21,7.4973433 21,28.779268 26,28 26,19 33,29 38.943,27 31,18 39,9 33,7 26,17 26,7 Z"
     id="path4204"
     inkscape:connector-curvature="0"
     sodipodi:nodetypes="ccccccccccccc" />
  <path
     style="color:#31363b;fill:#ffffff;fill-opacity:1"
     d="m 14.701172,13.001953 c -0.0615,0.0075 -0.127328,0.02186 -0.173828,0.06836 l -2.132813,2.119141 c -0.08948,0.08925 -0.09898,0.224031 -0.0332,0.332031 l 2.267578,3.720704 c -0.533337,0.866118 -0.944597,1.813143 -1.222656,2.816406 l -4.1855499,0.86328 C 9.0933531,22.947375 9,23.069469 9,23.199219 l 0,2.992187 c 0,0.12675 0.097403,0.234422 0.2207031,0.263672 l 4.0585939,0.978516 c 0.255309,1.128765 0.686861,2.188674 1.259765,3.15625 l -2.365234,3.576172 c -0.0717,0.10875 -0.05731,0.253452 0.03516,0.345703 l 2.13086,2.117187 c 0.09,0.08925 0.22989,0.100406 0.33789,0.03516 l 3.69336,-2.226562 c 0.9117,0.544943 1.907095,0.960985 2.964844,1.224609 l 0.861328,4.119141 C 22.223516,39.908 22.332391,40 22.462891,40 l 3.013671,0 c 0.126001,0 0.235626,-0.08478 0.265626,-0.207031 l 1.023437,-4.144531 c 1.066083,-0.276179 2.059808,-0.723029 2.974609,-1.285157 l 3.708985,2.414063 c 0.1095,0.0705 0.252703,0.05755 0.345703,-0.0332 l 2.121094,-2.117188 c 0.09,-0.08925 0.11092,-0.226734 0.04492,-0.333984 l -1.447266,-2.371094 -0.47461,0.150391 c -0.069,0.021 -0.145046,-0.01106 -0.185546,-0.07031 0,0 -0.449601,-0.608265 -0.806641,-1.091797 -0.166547,-0.253443 -0.973684,-1.438758 -1.806641,-2.52539 C 29.926747,31.197683 27.104471,32.996722 24,33 c -4.418278,0 -8,-3.581722 -8,-8 0.0029,-3.033662 1.420522,-5.729598 4,-7.080294 l 0,-3.234159 c -0.557871,0.207373 -0.924649,0.462811 -1.435547,0.753906 l -3.691406,-2.400391 c -0.05475,-0.036 -0.11113,-0.04311 -0.171875,-0.03711 z"
     id="path4143"
     inkscape:connector-curvature="0"
     sodipodi:nodetypes="cccccccssccccccccccssccccccccccccccccccc" />
</svg>

<?xml version="1.0" encoding="UTF-8" standalone="no"?>
<svg id="svg5048" xmlns:rdf="http://www.w3.org/1999/02/22-rdf-syntax-ns#" xmlns="http://www.w3.org/2000/svg" height="48" width="48" version="1.1" xmlns:cc="http://creativecommons.org/ns#" xmlns:dc="http://purl.org/dc/elements/1.1/">
 <defs id="defs5050">
  <style id="current-color-scheme" type="text/css">.ColorScheme-Text {
        color:#31363b;
      }
      .ColorScheme-Background{
        color:#eff0f1;
      }
      .ColorScheme-ViewText {
        color:#31363b;
      }
      .ColorScheme-ViewBackground{
        color:#fcfcfc;
      }
      .ColorScheme-ViewHover {
        color:#3daee9;
      }
      .ColorScheme-ViewFocus{
        color:#3daee9;
      }
      .ColorScheme-ButtonText {
        color:#31363b;
      }
      .ColorScheme-ButtonBackground{
        color:#eff0f1;
      }
      .ColorScheme-ButtonHover {
        color:#3daee9;
      }
      .ColorScheme-ButtonFocus{
        color:#3daee9;
      }</style>
  <style id="current-color-scheme-7" type="text/css">.ColorScheme-Text {
        color:#31363b;
      }
      .ColorScheme-Background{
        color:#eff0f1;
      }
      .ColorScheme-ViewText {
        color:#31363b;
      }
      .ColorScheme-ViewBackground{
        color:#fcfcfc;
      }
      .ColorScheme-ViewHover {
        color:#3daee9;
      }
      .ColorScheme-ViewFocus{
        color:#3daee9;
      }
      .ColorScheme-ButtonText {
        color:#31363b;
      }
      .ColorScheme-ButtonBackground{
        color:#eff0f1;
      }
      .ColorScheme-ButtonHover {
        color:#3daee9;
      }
      .ColorScheme-ButtonFocus{
        color:#3daee9;
      }</style>
 </defs>
 <metadata id="metadata5053">
  <rdf:RDF>
   <cc:Work rdf:about="">
    <dc:format>image/svg+xml</dc:format>
    <dc:type rdf:resource="http://purl.org/dc/dcmitype/StillImage"/>
    <dc:title/>
   </cc:Work>
  </rdf:RDF>
 </metadata>
 <rect id="rect4203" ry="2" rx="2" transform="matrix(0,-1,-1,0,0,0)" height="40" width="40" y="-44" x="-44" fill="#2c9bff"/>
 <path id="rect4592" opacity=".2" fill="#fff" d="m6 4c-1.108 0-2 0.892-2 2v1c0-1.108 0.892-2 2-2h36c1.108 0 2 0.892 2 2v-1c0-1.108-0.892-2-2-2h-36z"/>
 <path id="path4597" opacity=".2" d="m6 45c-1.108 0-2-0.892-2-2v-1c0 1.108 0.892 2 2 2h36c1.108 0 2-0.892 2-2v1c0 1.108-0.892 2-2 2h-36z"/>
 <rect id="rect3861" opacity="0" height="48" width="48" y=".000024414" x="0"/>
 <path id="path4219" opacity=".2" style="color:#31363b" d="m26.028 8.0004-5.028 0.4969v21.282l5-0.779v-9l7 10 5.943-2-7.943-9 8-9-6-2-7 10v-10z"/>
 <path id="path4221" opacity=".2" style="color:#31363b" d="m14.701 14.002c-0.0615 0.0075-0.12733 0.02186-0.17383 0.06836l-2.1328 2.1191c-0.08948 0.08925-0.09898 0.22403-0.0332 0.33203l2.2676 3.7207c-0.53334 0.86612-0.9446 1.8131-1.2227 2.8164l-4.1855 0.86328c-0.1271 0.026-0.2205 0.148-0.2205 0.278v2.9922c0 0.12675 0.097403 0.23442 0.2207 0.26367l4.0586 0.97852c0.25531 1.1288 0.68686 2.1887 1.2598 3.1562l-2.3652 3.5762c-0.0717 0.10875-0.05731 0.25345 0.03516 0.3457l2.1309 2.1172c0.09 0.08925 0.22989 0.10041 0.33789 0.03516l3.6934-2.2266c0.9117 0.54494 1.9071 0.96098 2.9648 1.2246l0.86133 4.1191c0.027 0.127 0.135 0.219 0.266 0.219h3.0137c0.126 0 0.23563-0.08478 0.26563-0.20703l1.0234-4.1445c1.0661-0.27618 2.0598-0.72303 2.9746-1.2852l3.709 2.4141c0.1095 0.0705 0.2527 0.05755 0.3457-0.0332l2.1211-2.1172c0.09-0.08925 0.11092-0.22673 0.04492-0.33398l-1.4473-2.3711-0.47461 0.15039c-0.069 0.021-0.14505-0.01106-0.18555-0.07031 0 0-0.4496-0.60826-0.80664-1.0918-0.16655-0.25344-0.97368-1.4388-1.8066-2.5254-1.314 2.814-4.137 4.613-7.241 4.616-4.4183 0-8-3.5817-8-8 0.0029-3.0337 1.4205-5.7296 4-7.0803v-3.2342c-0.55787 0.20737-0.92465 0.46281-1.4355 0.75391l-3.6914-2.4004c-0.05475-0.036-0.11113-0.04311-0.17188-0.03711z"/>
 <path id="path4204" style="color:#31363b" fill="#fff" d="m26.028 7.0004-5.028 0.4969v21.282l5-0.779v-9l7 10 5.943-2-7.943-9 8-9-6-2-7 10v-10z"/>
 <path id="path4143" style="color:#31363b" fill="#fff" d="m14.701 13.002c-0.0615 0.0075-0.12733 0.02186-0.17383 0.06836l-2.1328 2.1191c-0.08948 0.08925-0.09898 0.22403-0.0332 0.33203l2.2676 3.7207c-0.53334 0.86612-0.9446 1.8131-1.2227 2.8164l-4.1855 0.86328c-0.1271 0.026-0.2205 0.148-0.2205 0.278v2.9922c0 0.12675 0.097403 0.23442 0.2207 0.26367l4.0586 0.97852c0.25531 1.1288 0.68686 2.1887 1.2598 3.1562l-2.3652 3.5762c-0.0717 0.10875-0.05731 0.25345 0.03516 0.3457l2.1309 2.1172c0.09 0.08925 0.22989 0.10041 0.33789 0.03516l3.6934-2.2266c0.9117 0.54494 1.9071 0.96098 2.9648 1.2246l0.86133 4.1191c0.027 0.127 0.135 0.219 0.266 0.219h3.0137c0.126 0 0.23563-0.08478 0.26563-0.20703l1.0234-4.1445c1.0661-0.27618 2.0598-0.72303 2.9746-1.2852l3.709 2.4141c0.1095 0.0705 0.2527 0.05755 0.3457-0.0332l2.1211-2.1172c0.09-0.08925 0.11092-0.22673 0.04492-0.33398l-1.4473-2.3711-0.47461 0.15039c-0.069 0.021-0.14505-0.01106-0.18555-0.07031 0 0-0.4496-0.60826-0.80664-1.0918-0.16655-0.25344-0.97368-1.4388-1.8066-2.5254-1.314 2.814-4.137 4.613-7.241 4.616-4.4183 0-8-3.5817-8-8 0.0029-3.0337 1.4205-5.7296 4-7.0803v-3.2342c-0.55787 0.20737-0.92465 0.46281-1.4355 0.75391l-3.6914-2.4004c-0.05475-0.036-0.11113-0.04311-0.17188-0.03711z"/>
</svg>
